X:15
T:The Leitrim Lilter
R:reel
C:Charlie Lennon
O:20th Century Irish
S:Silver Apple News,1994
B:Musical Memories, Charlie Lennon
D:Musical Memories, Charlie Lennon
N:Contacts ...
N:..... charlielennon@cranfordpub.com
N:..... Cranford Publications <http://www.cranfordpub.com>
H:Copyrights:Charlie Lennon
N:<lennon@cranfordpub.com>
Z:This abc transcription is for personal use only,
Z:provided this notice remains attached.
Z:Used by permission of the composer and publisher.
Z:Paul Stewart Cranford <psc@cranfordpub.com>
L:1/8
Q:333
M:C|
K:D
B|AF F/F/F DFAc|dfaf eBBc|dAea f3 e|dBAF FEEB|!
AF  F/F/F DFAc|dfaf eBBA|GBge f2 fe|dBAG FDD:|!
|:E|FAdf a2bg|afdf eB B/B/B/ ABde faaf|[1(3gag fg eABA|!
FAdf a2bg|afdf eBBA|GBge f2 fe|dBAG FDD:|!
[2(3gag fg egfg|aff2 dBB2|ABdf eBBA|GBge f2 fe|dBAG FDD|]!

